X:606
T: LASST UNS DAS KINDLEIN WIEGEN
N: E1940A
O: Europa, Mitteleuropa, Deutschland, Schlesien, Glatz
R: geistlich, Fest - Lied, Weihnachten
M: 6/8
L: 1/16
K: F
C2 | c4c2A2B2c2 | G2F2G2A4
C2 | c4c2A2B2c2 | G2F2G2A4
G2 | A4G2A2B2G2 | F2F2z2
G6 | A4G2A2B2G2 | F2F2z6
C2 | F3GA2B2c2B2 | A3AG2F4
C2 | F3GA2B2c2B2 | A3AG2F4

